X:1
T:Title
%%score { ( 1 3 ) | ( 2 4 ) }
L:1/8
Q:1/4=100
M:4/4
K:C
V:1 treble nm="Grand Piano"
V:3 treble 
V:2 bass 
V:4 bass 
V:1
 [EG]>[FA] [EG]>[DF] [CE]2 [EG]2 | [Ec]>[Ed] [Fc]>[FA] [EG]2 E2 | G>A G>F E2 G2 | F>F E>E z2 G,2 | %4
w: Hilda~B.~Tovey * * * * *||||
 G>A G>F E2 [EG]2 | [Ec]>[Ec] [Gd]>[^Gc] [Ac]2 A2 | G>G [Gc]>[Gd] [Ge]>[Ge] [Gc]>c | %7
w: |||
[M:7/8] d2 B2 [Ec]3 |[M:1/4] B>c |[M:4/4] d2 d2 d>B A>B | [Ec]2 [Fc]2 [Ec]2 [EG]>[EG] | %11
w: ||||
 [FA]2 [FA]2 [^Fd]>[Fd] [Fd]>[Fc] | B2 c2 d2 G>G | [Ge]2 [Ge]2 [Ge]>[Gd] [Gc]>[^GB] | %14
w: |||
 [Ad]2 [Ac]2 [GB]2 A>A | G2 G2 c>c c>d | %16
w: ||
[M:23/16] z/ z/ z/ z/ z d/-d-<d z/ z/ z/ z/ z/ z/ z/ z/ z/ z/ z |] %17
w: |
V:2
 [C,C]>[C,C] [C,C]>[C,C] [C,G,]2 [C,C]2 | [C,G,]>[C,G,] [C,A,]>[C,B,] [C,C]2 [C,G,C]2 | %2
 [E,G,C]>[F,C] [E,G,C]>[D,G,C] [C,G,C]2 [E,G,C]2 | %3
 [D,G,B,]>[D,G,B,] [E,G,C]>[^F,A,C] [G,B,]2 =F,2 | %4
 [E,G,B,]>[E,G,C] [E,G,C]>[D,G,B,] [C,G,C]2 [C,C]2 | [C,G,]>[C,G,] [E,C]>[E,C] [F,C]2 [F,CF]2 | %6
 [G,CE]>[F,D] [E,C]>[D,B,] [C,C]>[C,C] [E,C]>[K:treble][A,CE] | %7
[M:7/8] [F,A,F]2 [G,F]2[K:bass] [C,G,]3 |[M:1/4] [G,D]>[K:treble][G,E] | %9
[M:4/4] [G,B,F]2 [G,B,F]2 [G,B,F]>[G,F] [G,B,F]>[G,DF] | [C,C]2 [C,A,]2 [C,G,]2 [C,C]>[C,C] | %11
 [F,C]2 [E,C]2 [D,C]>[D,C] [D,C]>[D,D] | [G,DG]2 [A,DG]2 [B,DG]2 [G,B,]>[G,B,] | %13
 [C,C]2 [C,C]2 [C,C]>[D,B,] [E,C]>[E,D] | [F,C]2 [F,C]2 [F,C]2[K:treble] [F,CF]>[F,CF] | %15
 [G,CE]2 [G,CE]2 [A,CE]>[A,CE] [^G,C^F]>[G,CF] | %16
[M:23/16] [G,CG]/-[G,CG]/-[G,CG]-<[G,CG][B,F]F>[K:bass]C,-C,/-C,/-C,/-C,/-C,/-C,/-C,/-C,-<C, |] %17
V:3
 x8 | x8 | x8 | z4 D4 | x8 | x8 | x8 |[M:7/8] x7 |[M:1/4] x2 |[M:4/4] x8 | x8 | x8 | x8 | x8 | x8 | %15
 x8 |[M:23/16] e/-e/-e-<e z B>[Ec]-[Ec]/-[Ec]/-[Ec]/-[Ec]/-[Ec]/-[Ec]/-[Ec]/-[Ec]-<[Ec] |] %17
V:4
 x8 | x8 | x8 | x8 | x8 | x8 | x15/2[K:treble] x/ |[M:7/8] x4[K:bass] x3 | %8
[M:1/4] x3/2[K:treble] x/ |[M:4/4] x8 | x8 | x8 | x8 | x8 | x6[K:treble] x2 | x8 | %16
[M:23/16] z/ z/ z/ z/ z G,/-G,-<G,[K:bass] z/ z/ z/ z/ z/ z/ z/ z/ z/ z/ z |] %17

